projects/ccf-eui/src/assets/icons/organ-icons/organ-icon-fallopian-tube-right.svg

<svg width="64" height="64" viewBox="0 0 64 64" fill="currentColor" xmlns="http://www.w3.org/2000/svg">
<path d="M15.296 29.504C17.664 31.6373 19.6906 31.6373 21.9306 32.64C20.9367 32.546 19.9342 32.6753 18.9967 33.0186C18.0592 33.3619 17.2102 33.9104 16.512 34.624C15.1253 35.8186 12.672 35.5626 11.9466 36.9066C12.0533 33.728 8.12796 30.9973 6.69863 28.8853C-3.13604 14.528 10.2826 5.09865 25.7706 7.87198C31.7763 9.07178 37.506 11.3796 42.6666 14.6773L40.5333 20.6293C36.3282 17.2238 31.3806 14.8559 26.0906 13.7173C15.424 11.1787 3.7333 19.3707 15.296 29.504Z" />
<path d="M21.2053 32.32C21.3333 32.32 31.3599 34.4533 31.3599 34.4533C36.3306 36.3733 33.4933 37.9093 27.6906 37.12C23.1679 36.5226 19.3919 34.9866 19.4773 35.968C19.5626 36.9493 26.8799 40.832 26.0479 42.368C25.2159 43.904 17.0666 37.9306 16.3413 39.3173C15.8986 39.9782 15.547 40.6958 15.2959 41.4506C14.0586 44.2026 12.8639 47.5093 11.7973 45.7173C11.3766 44.9104 11.157 44.0139 11.157 43.104C11.157 42.194 11.3766 41.2975 11.7973 40.4906C12.1541 39.359 12.1541 38.145 11.7973 37.0133L12.8426 33.8986L21.2053 32.32Z" />
<path d="M56.6827 9.00265C49.728 7.80798 48.8747 14.6346 45.2267 14.9333C43.5313 15.007 41.8658 14.4695 40.5333 13.4186L38.8267 18.5173C38.8267 18.5173 40.96 20.4373 40.96 21.8027C40.96 23.168 39.8293 27.9253 41.7493 31.5093C43.6693 35.0933 46.3573 37.6533 47.04 40.32C47.7227 42.9866 47.168 43.904 48.5547 50.0266C49.2047 53.3742 50.6293 56.5231 52.7147 59.2213H56.6187L56.6827 9.00265Z" />
</svg>

<svg xmlns="http://www.w3.org/2000/svg" width="64" height="64" fill="currentColor" viewBox="0 0 64 64"><path d="M15.296 29.504c2.368 2.133 4.395 2.133 6.635 3.136a6.7 6.7 0 0 0-5.419 1.984c-1.387 1.195-3.84.939-4.565 2.283.106-3.179-3.819-5.91-5.248-8.022C-3.136 14.528 10.283 5.1 25.77 7.872a49.3 49.3 0 0 1 16.896 6.805l-2.134 5.952a34.5 34.5 0 0 0-14.442-6.912C15.424 11.18 3.733 19.371 15.296 29.504"/><path d="M21.205 32.32c.128 0 10.155 2.133 10.155 2.133 4.97 1.92 2.133 3.456-3.67 2.667-4.522-.597-8.298-2.133-8.213-1.152s7.403 4.864 6.57 6.4c-.831 1.536-8.98-4.437-9.706-3.05a8.9 8.9 0 0 0-1.045 2.133c-1.237 2.752-2.432 6.058-3.499 4.266a5.65 5.65 0 0 1 0-5.226 5.8 5.8 0 0 0 0-3.478l1.046-3.114zM56.683 9.003c-6.955-1.195-7.808 5.632-11.456 5.93a7.08 7.08 0 0 1-4.694-1.514l-1.706 5.098s2.133 1.92 2.133 3.286c0 1.365-1.13 6.122.79 9.706s4.607 6.144 5.29 8.811.128 3.584 1.515 9.707a21.84 21.84 0 0 0 4.16 9.194h3.904z"/></svg>
